X:34
T:Lingerbay
M:4/4
L:1/8
R:Slow reel
C:Gris Sanderson
Q:300
N:A version of this tune is on the Waulk album House Music. I 
N:wrote it in my head while travelling to the studio with news of 
N:a shipwreck on the radio and other sea-related issues on my 
N:mind.
K:Fdor
c2FA- ABGE|C2FG (3AGF GE|Fc-cc- c3d|e2fc edBG|
A2FE E3A|~G2FE F3c|c2fc de-ee|deBG F2E2:|
|:(3F2=A2F2 (3_G2B2G2|(3A2c2A2 (3_G2B2G2|Fcfc de-ee|deBGF2FE|
~C2FE ~C2F_G|(3A_GF GE F_GAB|c2fc de-ee|deBG F2 FE:||
